!!!!SEGMENT: pl-kk--kk-i-1--056-003_anonim--feria-tertia-agnus-dei.krn
!!!cenid: 15xx:781
!!!COM: Anonim
!!!COM-rismID: pe30004985
!!!CDT:
!!!CNT:
!!!OPR: Feria tertia
!!!OTL: Agnus Dei
!!!OMV: 003
!!!PDT:
!!!AGN:
!!!YEC: Copyright 2022 Narodowy Instytut Fryderyka Chopina (https://polishscores.org)
!!!YEM: License CC-BY-4.0 (https://creativecommons.org/licenses/by/4.0)
!!!SMS-siglum: PL-Kk
!!!SMS-shelfmark: Kk.I.1
!!!SMS-shelfwork: 056-003 M
!!!SMS-variant:
!!!SMS-altvar:
!!!NIFC-rismSourceID: 300257954
!!!NIFC-rismChildID: 300258010
!!!NIFC-islandoraID: pl-kk:1
!!!URL-pdf-islandora: https://repozytorium.nifc.pl/islandora/object/pl-kk%3A1/datastream/PDF/view
!!!URL-scan: https://polish.musicsources.pl/pl/lokalizacje/galeria/rekopisy/5736 @EN{Scan on Polish Music Sources Website} @PL{Skany w portalu Dziedzictwo Muzyki Polskiej w otwartym dostępie}
!!!IIIF: https://repozytorium.nifc.pl/islandora/object/pl-kk%3A1/datastream/IIIF/view
!!!ONB-nifc: UWAGA: Cantus (s. 173v-176v, skan 0176-0179), Altus (s. 170r-173r, skan 0363-0366), Tenor (s. 146v-148v, skan 0537-0539), Bassus (s. 159v-162r, skan 0722-0724). Części Mszy: 1. Kyrie, 2. Sanctus, 3. Agnus Dei
!!!AIN: 1 alto 1 bass 1 soprn 1 tenor
!!!key: F
**kern	**text	**kern	**text	**kern	**text	**kern	**text
*part4	*	*part3	*	*part2	*	*part1	*
*staff4	*	*staff3	*	*staff2	*	*staff1	*
*ICvox	*	*ICvox	*	*ICvox	*	*ICvox	*
*Ibass	*	*Itenor	*	*Ialto	*	*Isoprn	*
*I"BASSVS	*	*I"TENOR	*	*I"ALTVS	*	*I"CANTVS	*
*I'B	*	*I'T	*	*I'A	*	*I'S	*
*stria6	*	*stria6	*	*stria6	*	*stria6	*
*clefF4	*	*clefC4	*	*clefC3	*	*clefC2	*
*k[b-]	*	*k[b-]	*	*k[b-]	*	*k[b-]	*
*F:	*	*F:	*	*F:	*	*F:	*
*M2/1	*	*M2/1	*	*M2/1	*	*M2/1	*
*met(C|)	*	*met(C|)	*	*met(C|)	*	*met(C|)	*
=1-	=1-	=1-	=1-	=1-	=1-	=1-	=1-
*xywh-#724:1467,1491,4410,955	*	*xywh-#538:5939,1397,4329,975	*	*xywh-#366:1365,1527,4498,865	*	*xywh-#178:6033,726,4353,940	*
2r	.	1c	A-	2g\	A-	2r	.
1c	A-	.	.	2e\	.	2cc\	A-
*	*	*lig	*	*	*	*	*
.	.	1d	.	2f\	-gnus	2a\	-gnus
2B-\	-gnus	.	.	2g\	De-	2b-\	.
=2-	=2-	=2-	=2-	=2-	=2-	=2-	=2-
2A\	De-	1c	.	1.a	-i	1cc	De-
2F\	-j	.	.	.	.	.	.
*	*	*Xlig	*	*	*	*	*
*	*	*lig	*	*	*	*	*
2.F\	.	1f	.	.	.	1.cc	-i
.	.	.	.	1a\	.	.	.
4G\	.	.	.	.	.	.	.
=3-	=3-	=3-	=3-	=3-	=3-	=3-	=3-
4A\	.	1e	.	.	.	.	.
4B-\	.	.	.	.	.	.	.
1c	.	.	.	1g	.	2cc\	.
*	*	*Xlig	*	*	*	*	*
.	.	1g	.	.	.	1dd	.
!LO:N:acc=#	!	!	!	!	!	!	!
!LO:TX:t=P:problem=# above	!	!	!	!	!	!	!
2Bn\	.	.	.	2d\	.	.	.
=4-	=4-	=4-	=4-	=4-	=4-	=4-	=4-
*	*	*lig	*	*	*	*	*
1c	.	1g	-gnus	4e\	a-	1cc	.
.	.	.	.	4f\	.	.	.
.	.	.	.	4g\	.	.	.
.	.	.	.	4e\	.	.	.
2.F\	a-	1f	.	4f\	.	2.a\	.
.	.	.	.	4g\	.	.	.
.	.	.	.	1a\	.	.	.
4G\	.	.	.	.	.	4b-\	.
*	*	*Xlig	*	*	*	*	*
=5-	=5-	=5-	=5-	=5-	=5-	=5-	=5-
4A\	.	1e	.	.	.	2cc\	.
4B-y\	.	.	.	.	.	.	.
2c\	.	.	.	4e\	.	4g\	.
.	.	.	.	4f\	.	4a\	.
2G\	.	0d	De-	2g\	.	2b-\	.
2F\	-gnus	.	.	2a\	-gnus	1cc\	.
=6-	=6-	=6-	=6-	=6-	=6-	=6-	=6-
1G	De-	.	.	1g	De-	.	.
!	!	!	!	!	!	!LO:SIC:v:s=2bn\	!
.	.	.	.	.	.	2b-\	.
2C/	-i	1c	-i	2e\	-i	2cc\	.
2c\	q(ui)	.	.	2e\	q(ui)	2cc\	q(ui)
=7-	=7-	=7-	=7-	=7-	=7-	=7-	=7-
*	*	*lig	*	*	*	*	*
2d\	tol-	1f	qui	2f\	tol-	2a\	tol-
2B-\	-lis	.	.	2d\	-lis	2b-\	-lis
*custos:A	*	*	*	*	*	*	*
2c\	pec-	1e	.	2g\	pec-	2g\	pec-
!LO:LB:g=original	!	!	!	!	!	!	!
*xywh-#724:1687,2288,4170,934	*	*	*	*	*	*	*
1A\	-ca-	.	.	2a\	-ca-	1cc\	-ca-
*	*	*Xlig	*	*	*	*	*
=8-	=8-	=8-	=8-	=8-	=8-	=8-	=8-
*	*	*lig	*	*	*	*	*
*	*	*	*	*custos:f	*	*	*
.	.	1c	.	2e\	-ta	.	.
!	!	!	!	!LO:LB:g=original	!	!	!
*	*	*	*	*xywh-#366:1522,2360,4327,832	*	*	*
2F/	-ta	.	.	1f	mun-	1a	.
1B-	mu(n)-	1d	.	.	.	.	.
.	.	.	.	2d\	-di	2g\	-ta
*	*	*Xlig	*	*	*	*	*
=9-	=9-	=9-	=9-	=9-	=9-	=9-	=9-
2A\	-di	1c	.	2r	.	1a	mu(n)-
1F	q(ui)	.	.	2f\	pec-	.	.
.	.	1A	.	2c/	-ca-	2f\	-di
2D/	tol-	.	.	2d/	-ta	1f/	q(ui)
=10-	=10-	=10-	=10-	=10-	=10-	=10-	=10-
0C	-lis	1c	.	0G	mu(n)-	.	.
.	.	.	.	.	.	4e/	tol-
.	.	.	.	.	.	4d/	.
*	*	*lig	*	*	*	*	*
*	*	*	*	*	*	*custos:f	*
.	.	1c	.	.	.	1e	-lis
=11-	=11-	=11-	=11-	=11-	=11-	=11-	=11-
!	!	!	!	!	!	!LO:LB:g=original	!
*	*	*	*	*	*	*xywh-#178:6047,1550,4387,892	*
2F/	pec-	1A	.	1F	-di	1f	.
1D	-ca-	.	.	.	.	.	.
*	*	*Xlig	*	*	*	*	*
*	*	*custos:B-	*	*	*	*	*
.	.	1F	.	1f	.	2r	.
2.BB-/	-ta	.	.	.	.	1b-\	pec-
=12-	=12-	=12-	=12-	=12-	=12-	=12-	=12-
*	*	*lig	*	*	*	*	*
!	!	!LO:LB:g=original	!	!	!	!	!
*	*	*xywh-#538:5986,2251,4241,880	*	*	*	*	*
.	.	1B-	.	1d	.	.	.
4C/	.	.	.	.	.	.	.
4D/	.	.	.	.	.	4f\	-ca-
4E/	.	.	.	.	.	4g\	.
1F	.	1A	.	2.c/	.	4a\	.
.	.	.	.	.	.	4b-\	.
.	.	.	.	.	.	4cc\	.
.	.	.	.	4d\	.	4a\	.
*	*	*Xlig	*	*	*	*	*
=13-	=13-	=13-	=13-	=13-	=13-	=13-	=13-
2C/	.	0G	tol-	2e\	.	2cc\	.
2BB-/	.	.	.	2.f\	.	2dd\	-ta
1C	mu(n)-	.	.	.	.	1cc	.
.	.	.	.	8e\L	.	.	.
.	.	.	.	8d\J	.	.	.
.	.	.	.	2e\	.	.	.
=14-	=14-	=14-	=14-	=14-	=14-	=14-	=14-
1F	-di	1F	-lis	1f	.	1a	mun-
1F	pec-	0c	pec-	0f	.	0a	-di
=15-	=15-	=15-	=15-	=15-	=15-	=15-	=15-
1.F	-ca-	.	.	.	.	.	.
.	.	1A	-ca-	1.c	.	1f	.
2F/	-ta	.	.	.	.	.	.
=16-	=16-	=16-	=16-	=16-	=16-	=16-	=16-
1C	mun-	1G	-ta	.	.	1e	.
.	.	.	.	2c/	.	.	.
*custos:c	*	*	*	*	*	*	*
2C/	-di	1c	mun-	2.e\	.	1g	.
!LO:LB:g=original	!	!	!	!	!	!	!
*xywh-#724:1667,3112,4184,961	*	*	*	*	*	*	*
1c\	mi-	.	.	.	.	.	.
.	.	.	.	4f\	.	.	.
=17-	=17-	=17-	=17-	=17-	=17-	=17-	=17-
*	*	*lig	*	*	*	*	*
.	.	1d	.	2g\	.	1g	.
*	*	*	*	*custos:e	*	*	*
2B-\	-se-	.	.	2d/	.	.	.
!	!	!	!	!LO:LB:g=original	!	!	!
*	*	*	*	*xywh-#366:1588,3167,4223,806	*	*	*
2.A\	-re-	1c	.	1e	mi-	2.cc\	mi-
4G\	-re	.	.	.	.	4b-\	-se-
*	*	*Xlig	*	*	*	*	*
=18-	=18-	=18-	=18-	=18-	=18-	=18-	=18-
2.F\	no-	1c	-di	2f\	-se-	2a\	-re-
.	.	.	.	1c	-re-	2a\	-re
4E\	.	.	.	.	.	.	.
1D	.	1f	mi-	.	.	1dd	no-
.	.	.	.	2B-/	.	.	.
=19-	=19-	=19-	=19-	=19-	=19-	=19-	=19-
2C/	-bis	1e	-se-	1c	-re	1g	-bis
1c	mi-	.	.	.	.	.	.
*	*	*	*	*	*	*	*ij
.	.	0g	-re-	2.e\	mi-	2.cc\	mi-
2c\	-se-	.	.	.	.	.	.
.	.	.	.	4e\	-se-	4cc\	-se-
=20-	=20-	=20-	=20-	=20-	=20-	=20-	=20-
2G\	-re-	.	.	2d\	  re-	2b-\	  re-
2G\	-re	.	.	2d\	-re	2b-\	-re
2B-\	no-	1f	.	2d\	no-	2b-\	no-
2F\	-bis	.	.	1c/	-bis	2a\	-bis
=21-	=21-	=21-	=21-	=21-	=21-	=21-	=21-
*	*ij	*	*	*	*	*	*
2.c\	mi-	1e	.	.	.	2.g/	mi-
.	.	.	.	1e	.	.	.
4c\	-se-	.	.	.	.	4g/	-se-
*	*	*lig	*	*	*	*	*
*	*	*	*	*	*	*custos:cc	*
2A\	-re-	1c	.	.	.	2a\	-re-
!	!	!	!	!	!	!LO:LB:g=original	!
*	*	*	*	*	*	*xywh-#178:6033,2326,4216,940	*
2A\	-re	.	.	2f\	.	1cc\	-re
=22-	=22-	=22-	=22-	=22-	=22-	=22-	=22-
0G	no-	1d	.	1.g	.	.	.
!	!	!	!	!	!	!LO:N:acc=#	!
!	!	!	!	!	!	!LO:TX:t=P:problem=# above	!
.	.	.	.	.	.	4bn\	.
.	.	.	.	.	.	4a\	.
*	*	*Xlig	*	*	*	*	*
.	.	1d	-re	.	.	1b	no-
.	.	.	.	2g\	.	.	.
=23-	=23-	=23-	=23-	=23-	=23-	=23-	=23-
2C/	-bis	1c	.	2e\	mi-	2cc\	-bis
*	*	*	*	*	*	*	*Xij
1F	mi-	.	.	2f\	-ſe-	1a	mi-
*	*	*custos:F	*	*	*	*	*
.	.	1A	.	2c/	-re-	.	.
1D/	-se-	.	.	2d/	-re	2f/	-se-
=24-	=24-	=24-	=24-	=24-	=24-	=24-	=24-
*	*	*lig	*	*	*	*	*
!	!	!LO:LB:g=original	!	!	!	!	!
*	*	*xywh-#538:6013,2962,4241,955	*	*	*	*	*
.	.	1F	.	2A/	no-	2d/	-re-
1BB-	-re-	.	.	2B-/	-bis	2d/	-re
.	.	1B-	.	1d	.	1f	no-
2BB-/	-re	.	.	.	.	.	.
*	*	*Xlig	*	*	*	*	*
=25-	=25-	=25-	=25-	=25-	=25-	=25-	=25-
1F	no-	1A	.	0c	.	2f\	-b(is)
*	*	*	*	*	*	*	*ij
.	.	.	.	.	.	1f	mi-
*custos:F	*	*	*	*	*	*	*
!LO:TX:t=P:problem=sklejenie karty, nuty niewidoczne	!	!	!	!	!	!	!
0Cyy	-bis	0G	no-	.	.	.	.
.	.	.	.	.	.	4e/	.
.	.	.	.	.	.	4d/	.
*	*Xij	*	*	*	*ij	*	*
=26-	=26-	=26-	=26-	=26-	=26-	=26-	=26-
!LO:PB:g=original	!	!	!	!LO:PB:g=original	!	!	!
*xywh-#724:6000,475,4417,1078	*	*	*	*xywh-#366:5999,540,4373,1029	*	*	*
.	.	.	.	1c	mi-	1e	-se-
2.F/	.	[y00F	-bis	1A	-ſe-	2c/	-re-
.	.	.	.	.	.	2c/	-re
4E/	.	.	.	.	.	.	.
=27-	=27-	=27-	=27-	=27-	=27-	=27-	=27-
2D/	.	.	.	2d/	-re-	2.f/	no-
2AA/	.	.	.	2c/	-re	.	.
.	.	.	.	.	.	4e/	.
1BB-	.	.	.	1B-	no-	1d	.
=28-	=28-	=28-	=28-	=28-	=28-	=28-	=28-
0F\l	.	.	.	0Al	-bis	0c/l	-bis
.	.	1F]yy	.	.	.	.	.
*	*	*	*	*	*Xij	*	*Xij
=29-	=29-	=29-	=29-	=29-	=29-	=29-	=29-
!	!	!	!	!	!	!LO:LB:g=original	!
*	*	*	*	*	*	*xywh-#178:5931,3178,4482,933	*
1F	A-	1f	A-	2c/	A-	1.a	A-
.	.	.	.	2c/	-gnus	.	.
1D	-gnus	1f	-gnus	1d	De-	.	.
.	.	.	.	.	.	2a\	-gnus
=30-	=30-	=30-	=30-	=30-	=30-	=30-	=30-
!	!	!	!	!	!	!LO:N:acc=#	!
!	!	!	!	!	!	!LO:TX:t=P:problem=# above	!
1G	De-	1d	De-	2G/	-i	1bn	De-
.	.	.	.	2g\	q(ui)	.	.
2C/	-i	1c	-i	2e\	tol-	2cc\	-i
2F/	q(ui)	.	.	2f\	-lis	2a\	q(ui)
=31-	=31-	=31-	=31-	=31-	=31-	=31-	=31-
*	*	*lig	*	*	*	*	*
2F/	tol-	1f	qui	1c	pec-	2a\	tol-
2F/	-lis	.	.	.	.	2a\	-lis
1c	pec-	1e	.	2c/	-ca-	1g	pec-
.	.	.	.	2e/	-ta	.	.
*	*	*Xlig	*	*	*	*	*
=32-	=32-	=32-	=32-	=32-	=32-	=32-	=32-
1.G	-ca-	0g	.	1d	mu(n)-	0b-y	-ca-
.	.	.	.	1d	-di	.	.
2G\	-ta	.	.	.	.	.	.
=33-	=33-	=33-	=33-	=33-	=33-	=33-	=33-
1d	mu(n)-	1f	.	2r	.	2a\	-ta
.	.	.	.	2a\	q(ui)	1dd	mu(n)-
1A	-di	1e	.	2a\	tol-	.	.
*	*	*	*	*custos:f	*	*	*
!	!	!	!	!	!	!LO:N:acc=#	!
!	!	!	!	!	!	!LO:TX:t=P:problem=# above	!
.	.	.	.	2a\	-lis	2cc#X\	-di
=34-	=34-	=34-	=34-	=34-	=34-	=34-	=34-
!	!	!	!	!LO:LB:g=original	!	!	!
*	*	*	*	*xywh-#366:6026,1523,4301,780	*	*	*
2r	.	0d	tol-	1f	pec-	2dd\	.
*custos:B-	*	*	*	*	*	*	*
2B-\	qui	.	.	.	.	2b-\	q(ui)
!LO:LB:g=original	!	!	!	!	!	!	!
*xywh-#724:6027,1458,4287,961	*	*	*	*	*	*	*
2B-\	tol-	.	.	1.f	-ca-	2b-\	tol-
2B-\	-lis	.	.	.	.	2b-\	-lis
=35-	=35-	=35-	=35-	=35-	=35-	=35-	=35-
1F	pec-	1c	-lis	.	.	1a	pec-
.	.	.	.	2f\	-ta	.	.
2.c\	-ca-	1e	pec-	4g\	mun-	1g	-ca-
.	.	.	.	4f\	.	.	.
.	.	.	.	4e\	.	.	.
4B-\	-ta	.	.	4d\	.	.	.
=36-	=36-	=36-	=36-	=36-	=36-	=36-	=36-
1A	mu(n)-	1f	.	1c	.	4a\	-ta
.	.	.	.	.	.	4b-\	.
.	.	.	.	.	.	1ccny	mu(n)-
1G	.	1g	.	1d	-di	.	.
!	!	!	!	!	!	!LO:N:acc=#	!
!	!	!	!	!	!	!LO:TX:t=P:problem=# above	!
.	.	.	.	.	.	2bn\	.
=37-	=37-	=37-	=37-	=37-	=37-	=37-	=37-
*	*	*custos:f	*	*	*	*	*
1C	-di	1e	-ca-	1c	mi-	1cc	-di
*	*	*lig	*	*	*	*	*
!	!	!LO:PB:g=original	!	!	!	!	!
*	*	*xywh-#539:1560,474,4269,1030	*	*	*	*	*
2F/	mi-	1f	-ta	2c/	-se-	2a\	mi-
2D/	-se-	.	.	1d/	-re-	2a\	-se-
=38-	=38-	=38-	=38-	=38-	=38-	=38-	=38-
2.E/	-re-	1e	.	.	.	2.g/	-re-
.	.	.	.	1c	-re	.	.
*	*	*	*	*	*	*custos:g	*
4F/	-re	.	.	.	.	4a\	-re
*	*	*Xlig	*	*	*	*	*
*	*	*lig	*	*	*	*	*
!	!	!	!	!	!	!LO:PB:g=original	!
*	*	*	*	*	*	*xywh-#179:1487,806,4284,919	*
1G	no-	1d	mun-	.	.	1g	no-
!	!	!	!	!LO:N:acc=#	!	!	!
!	!	!	!	!LO:TX:t=P:problem=# below	!	!	!
.	.	.	.	2Bn/	no-	.	.
=39-	=39-	=39-	=39-	=39-	=39-	=39-	=39-
2C/	-bis	1c	.	1c	  bis	2g\	-bis
1F	mi-	.	.	.	.	1a	.
*	*	*Xlig	*	*	*ij	*	*
.	.	1c	-di	1.f	mi-	.	.
2F/	-se-	.	.	.	.	2a\	.
=40-	=40-	=40-	=40-	=40-	=40-	=40-	=40-
*	*	*lig	*	*	*	*	*
1BB-	-re-	1d	mi-	.	.	1b-y	.
.	.	.	.	2f\	    se-	.	.
1.F	-re	1c	.	2f\	-re-	2.a\	.
.	.	.	.	2f\	-re	.	.
.	.	.	.	.	.	4b-\	.
*	*	*Xlig	*	*	*	*	*
=41-	=41-	=41-	=41-	=41-	=41-	=41-	=41-
*	*	*lig	*	*	*	*	*
.	.	1A	-se-	1f	no-	2cc\	.
2D/	no-	.	.	.	.	2dd\	.
1C	-bis	1c	.	1e	-bis	2g\	.
.	.	.	.	.	.	1cc\	mi-
*	*ij	*Xlig	*	*	*	*	*
=42-	=42-	=42-	=42-	=42-	=42-	=42-	=42-
0F	mi-	1c	.	2.f\	mi-	.	.
.	.	.	.	.	.	1a	-se-
*	*	*	*	*custos:c	*	*	*
.	.	.	.	4f\	-se-	.	.
!	!	!	!	!LO:LB:g=original	!	!	!
*	*	*	*	*xywh-#366:6000,2310,4255,813	*	*	*
.	.	1A	-re-	2c/	-re-	.	.
.	.	.	.	2c/	-re	1f/	-re-
=43-	=43-	=43-	=43-	=43-	=43-	=43-	=43-
1D	-se-	1F	-re	2d/	no-	.	.
.	.	.	.	2A/	-bis	2d/	-re
*custos:F	*	*	*	*	*	*	*
1BB-	-re-	1B-	no-	2.d/	mi-	2.f/	mi-
.	.	.	.	4d/	-se-	4g/	-se-
=44-	=44-	=44-	=44-	=44-	=44-	=44-	=44-
!LO:LB:g=original	!	!	!	!	!	!	!
*xywh-#724:5978,2351,4287,742	*	*	*	*	*	*	*
1F	-re	1A	.	2c/	  re-	2a\	  re-
.	.	.	.	2c/	-re	1f	-re
0C	no-	0G	.	0c	no-	.	.
.	.	.	.	.	.	4e/	.
.	.	.	.	.	.	4d/	.
=45-	=45-	=45-	=45-	=45-	=45-	=45-	=45-
.	.	.	.	.	.	1e	no-
1F\l	-bis	1F/l	-bis.	1A/l	-bis	1f/l	-bis.
*	*Xij	*	*	*	*Xij	*	*
==	==	==	==	==	==	==	==
*-	*-	*-	*-	*-	*-	*-	*-
!!!system-decoration: [(s1,s2,s3,s4)]
!!!RDF**kern: l = terminal long
!!!ENC: Mateusz Solarz
!!!END: 2022-03-22
!!!ENC: Krzysztof Stępień
!!!END: 2022-03-23
!!!ENC-iiif: Jan Barakat
!!!END-iiif: 2022-09-01
